X:1
T:Hic Breve Vivitur, 76.76
T:Hic Breve Vivitur, 76.76
T:Alfred Pettet, circa 1815
T:Public Domain Courtesy of the Cyber Hymnal™
C:Alfred Pettet, circa 1815
Z:Public Domain
Z:Courtesy of the Cyber Hymnal™
%%score ( 1 2 ) ( 3 4 )
L:1/8
Q:1/4=115
M:none
K:Eb
V:1 treble 
V:2 treble 
V:3 bass 
V:4 bass 
V:1
 [EG]2 | [FB]2 [Ge]2 [FA]2 G2 | F4 E2 [EG]2 | [EA]2 [EB]2 c2 c2 | [DF]6 [FB]2 | %5
 [Be]2 [EG]2 [EA]2 [=Ec]2 | f3 (z ed) [Fc]2 | (cB) (FG/A/) [EG]2 [DF]2 | E6 |] %9
V:2
 x2 | x6 (FE) | (E2 D2) E2 x2 | x4 (EA) (FE) | x8 | x8 | (F2 =A2 e) B2 x | G2 C2 x4 | E6 |] %9
V:3
 [E,B,]2 | [D,D]2 [C,E]2 [D,B,]2 [E,B,]2 | ([A,,C]2 B,A,) [E,G,]2 [_D,B,]2 | %3
 (A,E) [B,,_D]2 [A,,C]2 [=A,,C]2 | [B,,B,]6 [B,D]2 | [G,E]2 B,2 [C,A,]2 [B,,G,]2 | %6
 ([=A,,C]2 [C,F,]2) [B,,F,]2 (CD) | [G,E]2 [A,C]2 B,2 z A, | [E,G,]6 |] %9
V:4
 x2 | x8 | x2 B,,2 x4 | C,2 x6 | x8 | x2 (E,_D,) x4 | x6 _A,2 | x4 B,2 B,,2 | x6 |] %9

